icon-themes/sifr_svg/cmd/sc_backcolor.svg

<svg viewBox="0 0 16 16" xmlns="http://www.w3.org/2000/svg"><g fill="#555753"><path d="m0 12v4h16v-4z" opacity=".35"/><path d="m9 0-3 3 4 4 6-6v-1zm-4 4c-.7191582 1.30785-1.0796421 2.6393901-1 4l-2 2h2l1-1c1.6790981-.0070962 2.8522408-.4915732 4-1z"/></g></svg>

<svg xmlns="http://www.w3.org/2000/svg" viewBox="0 0 16 16">
  <path
     style="opacity:0.35;fill:#555753"
     d="M 0 12 L 0 16 L 16 16 L 16 12 L 0 12 z "
     />
  <path
     style="fill:#555753"
     d="M 9 0 L 6 3 L 10 7 L 16 1 L 16 0 L 9 0 z M 5 4 C 4.2808418 5.30785 3.9203579 6.6393901 4 8 L 2 10 L 4 10 L 5 9 C 6.6790981 8.9929038 7.8522408 8.5084268 9 8 L 5 4 z "
     />
</svg>
